X: 37499
T: Sligo Maid, The
R: reel
M: 4/4
K: Adorian
|:A2BA (3B^cd ef|gedB AGEF|~G2 (3BAG dGBG|DG~G2 (3BAG dB|A2BA (3B^cd ef|
gedB AGEF|1 ~G2BG ABGE|DEGA BAAG:|2 ~G2 GB AFGE|DEGA BAAg||
|:eaag ~a2g~a-|agaf gedg|egge ~g2ge|dg ~g2 dgbg|
eaag ~a2g~a-|agaf gedg|eg ~g2 edBd|1 edgd BAAg:|2 edgd BAAG||

